X:1
T:Title
%%score { ( 1 3 ) | 2 }
L:1/8
M:6/8
K:Ab
V:1 treble nm="Grand Piano"
V:3 treble 
V:2 bass 
V:1
 z3 z2[Q:1/4=84] [CE] | [CE][CF][CG] [CA][CB][CA] | GGA B2 E | EGA B=AB |[M:5/8] [Ec]-[Ec]- [Ec]3 | %5
[M:1/8] [Ec] |[M:3/4] [Ec][EG] [EG][EG] [E_G][E=G] | [GB]A G A2 =A | [=DB][Dc] [DB][DF] [DG][DA] | %9
 B6 | c_c =c e2 [Ec] | [=DB]3 [DF]3 | B=A B c2 B | E6 | [CE][CF] [CG][CA] [DB][Ec] | %15
 [DF][FB] [Fc][Fd] [Fc][FB] | [Ae]c A c2 B |[M:5/8] [CA]-[CA]- [CA]3 |] %18
V:2
 z3 z2 [A,,A,] | [A,,A,][A,,A,][A,,A,] [A,,E,][A,,E,][A,,A,] | [E,D][E,D][E,F,D] [E,G,D]2 [E,G,D] | %3
 [E,G,D][E,B,D][E,F,D] [E,G,D][E,_G,C][E,=G,D] |[M:5/8] [A,,A,]-[A,,A,]- [A,,A,]3 | %5
[M:1/8] [A,,A,] |[M:3/4] [C,G,][C,C] [C,C][C,C] [C,C][C,C] | [F,C][F,CF] [F,C=E] [F,CF]2 [F,C_E] | %8
 [B,,A,][B,,A,] [B,,A,][B,,A,] [B,,G,][B,,F,] | [E,G,E]6 | %10
 [A,E][A,=D] [A,E] [A,CA]2[K:bass] [A,,A,] | [B,,F,]3 [B,,A,]3 | %12
 [E,G,D][E,_G,C] [E,=G,D] [E,F,E]2 [E,G,D] | [A,,A,]3 [B,,G,]2 [E,G,D] | %14
 [A,,A,][A,,A,] [A,,A,][A,,E,] [A,,E,][A,,A,] | [D,A,][D,A,] [C,=A,][B,,B,] [C,A,][D,B,] | %16
 [E,C][E,A,E] [E,A,C] [E,A,E]2 [E,G,D] |[M:5/8] [A,,E,A,]-[A,,E,A,]- [A,,E,A,]3 |] %18
V:3
 x6 | x6 | x6 | x6 |[M:5/8] x5 |[M:1/8] x |[M:3/4] x6 | x6 | x6 | x6 | x6 | x6 | x6 | C3 D2 E | %14
 x6 | x6 | x6 |[M:5/8] x5 |] %18

